src/standard/gpu.svg

<svg xmlns="http://www.w3.org/2000/svg" viewBox="0 0 36 36">
  <path d="M26 9.38H10a.61.61 0 0 0-.62.62v16a.61.61 0 0 0 .62.62h16a.61.61 0 0 0 .62-.62V10a.61.61 0 0 0-.62-.62Zm-.62 16H10.62V10.62h14.76ZM29 10.62h2a.62.62 0 1 0 0-1.24h-2a.62.62 0 0 0 0 1.24Zm2 6.76h-2a.62.62 0 0 0 0 1.24h2a.62.62 0 0 0 0-1.24Zm0-4h-2a.62.62 0 0 0 0 1.24h2a.62.62 0 1 0 0-1.24Zm0 12h-2a.62.62 0 0 0 0 1.24h2a.62.62 0 0 0 0-1.24Zm0-4h-2a.62.62 0 0 0 0 1.24h2a.62.62 0 0 0 0-1.24Zm-24-12H5a.62.62 0 1 0 0 1.24h2a.62.62 0 1 0 0-1.24Zm0 8H5a.62.62 0 1 0 0 1.24h2a.62.62 0 0 0 0-1.24Zm0-4H5a.62.62 0 1 0 0 1.24h2a.62.62 0 1 0 0-1.24Zm0 12H5a.62.62 0 1 0 0 1.24h2a.62.62 0 0 0 0-1.24Zm0-4H5a.62.62 0 1 0 0 1.24h2a.62.62 0 0 0 0-1.24Zm19 7a.61.61 0 0 0-.62.62v2a.62.62 0 0 0 1.24 0v-2a.61.61 0 0 0-.62-.62Zm-8 0a.61.61 0 0 0-.62.62v2a.62.62 0 0 0 1.24 0v-2a.61.61 0 0 0-.62-.62Zm4 0a.61.61 0 0 0-.62.62v2a.62.62 0 0 0 1.24 0v-2a.61.61 0 0 0-.62-.62Zm-12 0a.61.61 0 0 0-.62.62v2a.62.62 0 0 0 1.24 0v-2a.61.61 0 0 0-.62-.62Zm4 0a.61.61 0 0 0-.62.62v2a.62.62 0 0 0 1.24 0v-2a.61.61 0 0 0-.62-.62Zm12-24a.61.61 0 0 0-.62.62v2a.62.62 0 0 0 1.24 0V5a.61.61 0 0 0-.62-.62Zm-8 3.24a.61.61 0 0 0 .62-.62V5a.62.62 0 0 0-1.24 0v2a.61.61 0 0 0 .62.62Zm4 0a.61.61 0 0 0 .62-.62V5a.62.62 0 0 0-1.24 0v2a.61.61 0 0 0 .62.62Zm-12 0a.61.61 0 0 0 .62-.62V5a.62.62 0 0 0-1.24 0v2a.61.61 0 0 0 .62.62Zm4 0a.61.61 0 0 0 .62-.62V5a.62.62 0 1 0-1.24 0v2a.61.61 0 0 0 .62.62Z"/>
</svg>

<svg id="e75ad3da-7a10-47e9-a733-92242b3ee654" data-name="Icon" xmlns="http://www.w3.org/2000/svg" viewBox="0 0 36 36">
  <title>GPU icon - Black</title>
<desc>CPU, processor, core, graphics, PC, process, computer, hardware</desc>
<metadata><?xpacket begin="﻿" id="W5M0MpCehiHzreSzNTczkc9d"?>
<x:xmpmeta xmlns:x="adobe:ns:meta/" x:xmptk="Adobe XMP Core 8.0-c001 1.000000, 0000/00/00-00:00:00        ">
   <rdf:RDF xmlns:rdf="http://www.w3.org/1999/02/22-rdf-syntax-ns#">
      <rdf:Description rdf:about=""
            xmlns:xmp="http://ns.adobe.com/xap/1.0/"
            xmlns:dc="http://purl.org/dc/elements/1.1/"
            xmlns:cq="http://www.day.com/jcr/cq/1.0"
            xmlns:tiff="http://ns.adobe.com/tiff/1.0/">
         <xmp:rhcc-effective-on>2023-12-08T17:34:11.881Z</xmp:rhcc-effective-on>
         <xmp:rhcc-metadata-complete-moderator>pending</xmp:rhcc-metadata-complete-moderator>
         <xmp:rhcc-translation-id>TRA6d7b7b3e-e5df-4c85-ae97-f082fd0aa4b9</xmp:rhcc-translation-id>
         <xmp:brand-content-type>Icon</xmp:brand-content-type>
         <xmp:CreateDate>2023-12-08T17:34:11.881Z</xmp:CreateDate>
         <xmp:rhcc-effective-on-set-on-upload>true</xmp:rhcc-effective-on-set-on-upload>
         <xmp:rhcc-metadata-complete-uploader>pending</xmp:rhcc-metadata-complete-uploader>
         <xmp:rhcc-file-last-modified>2023-12-08T17:34:20.285Z</xmp:rhcc-file-last-modified>
         <xmp:rhcc-audience>rhcc-audience:internal</xmp:rhcc-audience>
         <xmp:rhcc-rights-restricted>no</xmp:rhcc-rights-restricted>
         <xmp:brand-content-subtype>Icon</xmp:brand-content-subtype>
         <xmp:rhcc-derivative-id>DER6d7b7b3e-e5df-4c85-ae97-f082fd0aa4b9</xmp:rhcc-derivative-id>
         <xmp:brand-logo-color>Black</xmp:brand-logo-color>
         <xmp:rhcc-notify-portal-subscribers-on-change>yes</xmp:rhcc-notify-portal-subscribers-on-change>
         <dc:format>image/svg+xml</dc:format>
         <dc:modified>2024-02-09T20:11:46.985Z</dc:modified>
         <dc:title>
            <rdf:Alt>
               <rdf:li xml:lang="x-default">GPU icon - Black</rdf:li>
            </rdf:Alt>
         </dc:title>
         <dc:description>
            <rdf:Alt>
               <rdf:li xml:lang="x-default">CPU, processor, core, graphics, PC, process, computer, hardware</rdf:li>
            </rdf:Alt>
         </dc:description>
         <cq:lastReplicationAction_scene7>Activate</cq:lastReplicationAction_scene7>
         <cq:lastReplicationAction_publish>Activate</cq:lastReplicationAction_publish>
         <cq:lastReplicated_publish>2024-02-09T21:47:15.078Z</cq:lastReplicated_publish>
         <cq:lastReplicatedBy>workflow-process-service</cq:lastReplicatedBy>
         <cq:lastReplicationAction>Activate</cq:lastReplicationAction>
         <cq:lastReplicatedBy_publish>workflow-process-service</cq:lastReplicatedBy_publish>
         <cq:isDelivered>true</cq:isDelivered>
         <cq:lastReplicated>2024-02-09T21:47:15.078Z</cq:lastReplicated>
         <cq:lastReplicatedBy_scene7>workflow-process-service</cq:lastReplicatedBy_scene7>
         <cq:lastReplicated_scene7>2024-02-09T21:47:15.078Z</cq:lastReplicated_scene7>
         <tiff:ImageLength>36</tiff:ImageLength>
         <tiff:ImageWidth>36</tiff:ImageWidth>
      </rdf:Description>
   </rdf:RDF>
</x:xmpmeta>
                                                                                                    
                                                                                                    
                                                                                                    
                                                                                                    
                                                                                                    
                                                                                                    
                                                                                                    
                                                                                                    
                                                                                                    
                                                                                                    
                                 
<?xpacket end="w"?></metadata>
<g>
    <path d="M26,9.38H10a.61.61,0,0,0-.62.62V26a.61.61,0,0,0,.62.62H26a.61.61,0,0,0,.62-.62V10A.61.61,0,0,0,26,9.38Zm-.62,16H10.62V10.62H25.38Z"/>
    <path d="M29,10.62h2a.62.62,0,1,0,0-1.24H29a.62.62,0,0,0,0,1.24Z"/>
    <path d="M31,17.38H29a.62.62,0,0,0,0,1.24h2a.62.62,0,0,0,0-1.24Z"/>
    <path d="M31,13.38H29a.62.62,0,0,0,0,1.24h2a.62.62,0,1,0,0-1.24Z"/>
    <path d="M31,25.38H29a.62.62,0,0,0,0,1.24h2a.62.62,0,0,0,0-1.24Z"/>
    <path d="M31,21.38H29a.62.62,0,0,0,0,1.24h2a.62.62,0,0,0,0-1.24Z"/>
    <path d="M7,9.38H5a.62.62,0,1,0,0,1.24H7A.62.62,0,1,0,7,9.38Z"/>
    <path d="M7,17.38H5a.62.62,0,1,0,0,1.24H7a.62.62,0,0,0,0-1.24Z"/>
    <path d="M7,13.38H5a.62.62,0,1,0,0,1.24H7a.62.62,0,1,0,0-1.24Z"/>
    <path d="M7,25.38H5a.62.62,0,1,0,0,1.24H7a.62.62,0,0,0,0-1.24Z"/>
    <path d="M7,21.38H5a.62.62,0,1,0,0,1.24H7a.62.62,0,0,0,0-1.24Z"/>
    <path d="M26,28.38a.61.61,0,0,0-.62.62v2a.62.62,0,0,0,1.24,0V29A.61.61,0,0,0,26,28.38Z"/>
    <path d="M18,28.38a.61.61,0,0,0-.62.62v2a.62.62,0,0,0,1.24,0V29A.61.61,0,0,0,18,28.38Z"/>
    <path d="M22,28.38a.61.61,0,0,0-.62.62v2a.62.62,0,0,0,1.24,0V29A.61.61,0,0,0,22,28.38Z"/>
    <path d="M10,28.38a.61.61,0,0,0-.62.62v2a.62.62,0,0,0,1.24,0V29A.61.61,0,0,0,10,28.38Z"/>
    <path d="M14,28.38a.61.61,0,0,0-.62.62v2a.62.62,0,0,0,1.24,0V29A.61.61,0,0,0,14,28.38Z"/>
    <path d="M26,4.38a.61.61,0,0,0-.62.62V7a.62.62,0,0,0,1.24,0V5A.61.61,0,0,0,26,4.38Z"/>
    <path d="M18,7.62A.61.61,0,0,0,18.62,7V5a.62.62,0,0,0-1.24,0V7A.61.61,0,0,0,18,7.62Z"/>
    <path d="M22,7.62A.61.61,0,0,0,22.62,7V5a.62.62,0,0,0-1.24,0V7A.61.61,0,0,0,22,7.62Z"/>
    <path d="M10,7.62A.61.61,0,0,0,10.62,7V5A.62.62,0,0,0,9.38,5V7A.61.61,0,0,0,10,7.62Z"/>
    <path d="M14,7.62A.61.61,0,0,0,14.62,7V5a.62.62,0,1,0-1.24,0V7A.61.61,0,0,0,14,7.62Z"/>
  </g>
</svg>
